icons/sugar_fill.svg

<svg width="48" height="48" viewBox="0 0 48 48" fill="none" xmlns="http://www.w3.org/2000/svg">
<path fill-rule="evenodd" clip-rule="evenodd" d="M34.4588 10.048C34.797 9.93925 35.1676 10.0181 35.4323 10.2552L43.6675 17.6336C43.9357 17.8739 44.054 18.2398 43.9773 18.5916L41.6243 29.3754C41.5446 29.7408 41.2675 30.0312 40.9062 30.1281L30.318 32.9659C29.9751 33.0578 29.6092 32.9611 29.3566 32.7117L24.7978 28.2117C24.4047 27.8237 24.4006 27.1906 24.7886 26.7975C25.1766 26.4045 25.8097 26.4004 26.2028 26.7883L30.3537 30.8857L39.8001 28.3539L41.899 18.7344L34.525 12.1277L24.9685 15.2012L23.9506 18.3111C23.7789 18.836 23.2141 19.1222 22.6892 18.9504C22.1643 18.7786 21.8781 18.2139 22.0499 17.689L23.2263 14.0944C23.326 13.7899 23.5655 13.5515 23.8705 13.4534L34.4588 10.048Z" fill="black"/>
<path fill-rule="evenodd" clip-rule="evenodd" d="M32.7219 20.0249C33.2604 20.1473 33.5978 20.6831 33.4754 21.2216L30.9754 32.2216C30.853 32.7602 30.3172 33.0975 29.7786 32.9752C29.2401 32.8528 28.9027 32.3169 29.0251 31.7784L31.5251 20.7784C31.6475 20.2398 32.1833 19.9025 32.7219 20.0249Z" fill="black"/>
<path fill-rule="evenodd" clip-rule="evenodd" d="M23.7375 13.8533C24.0946 13.4321 24.7257 13.3801 25.1469 13.7373L32.4119 19.8966L39.2371 18.0353C39.77 17.8899 40.3197 18.2041 40.465 18.7369C40.6103 19.2697 40.2962 19.8195 39.7634 19.9648L32.43 21.9647C32.112 22.0514 31.7716 21.9759 31.5202 21.7627L23.8536 15.2628C23.4323 14.9056 23.3803 14.2746 23.7375 13.8533Z" fill="black"/>
<path fill-rule="evenodd" clip-rule="evenodd" d="M10.7423 15.2766C10.9989 15.0317 11.3661 14.9411 11.7072 15.0384L19.9775 17.3995C20.3192 17.4971 20.5835 17.7688 20.6717 18.1131L22.969 27.0853C23.0623 27.4495 22.9434 27.8352 22.6613 28.0837L16.2289 33.7504C15.9733 33.9755 15.6208 34.0551 15.2933 33.9616L7.02303 31.6005C6.68582 31.5042 6.42368 31.2383 6.33219 30.8998L4.03489 22.3998C3.93929 22.0461 4.04479 21.6684 4.30985 21.4155L10.7423 15.2766ZM11.7088 17.1188L6.12072 22.4519L8.11547 29.8325L15.3169 31.8884L20.8796 26.9879L18.8766 19.1652L11.7088 17.1188Z" fill="black"/>
<path fill-rule="evenodd" clip-rule="evenodd" d="M17.7074 20.2929C18.0979 20.6834 18.0979 21.3166 17.7074 21.7071L13.7074 25.7071C13.4524 25.9621 13.08 26.06 12.7326 25.9635L4.73261 23.7413C4.20047 23.5935 3.88892 23.0423 4.03674 22.5102C4.18455 21.978 4.73576 21.6665 5.2679 21.8143L12.7057 23.8803L16.2931 20.2929C16.6837 19.9024 17.3168 19.9024 17.7074 20.2929Z" fill="black"/>
<path fill-rule="evenodd" clip-rule="evenodd" d="M12.7577 24.0299C13.2935 23.8959 13.8364 24.2217 13.9704 24.7575L15.9704 32.7575C16.1043 33.2933 15.7786 33.8362 15.2428 33.9702C14.707 34.1041 14.1641 33.7783 14.0301 33.2426L12.0301 25.2426C11.8962 24.7068 12.2219 24.1638 12.7577 24.0299Z" fill="black"/>
</svg>

<svg
  xmlns="http://www.w3.org/2000/svg"
  width="24"
  height="24"
  viewBox="0 0 24 24"
  fill="none"
  stroke="currentColor"
  stroke-width="2"
  stroke-linecap="round"
  stroke-linejoin="round"
>
  <path
    fill-rule="evenodd"
    d="M34.459 10.048a1 1 0 0 1 .973.207l8.235 7.379a1 1 0 0 1 .31.958l-2.353 10.783a1 1 0 0 1-.718.753l-10.588 2.838a1 1 0 0 1-.961-.254l-4.56-4.5a1 1 0 1 1 1.406-1.424l4.15 4.098 9.447-2.532 2.099-9.62-7.374-6.606-9.556 3.073-1.018 3.11a1 1 0 1 1-1.901-.622l1.176-3.595a1 1 0 0 1 .645-.64z"
    clip-rule="evenodd"
  />
  <path
    fill-rule="evenodd"
    d="M32.722 20.025a1 1 0 0 1 .753 1.197l-2.5 11a1 1 0 0 1-1.95-.444l2.5-11a1 1 0 0 1 1.197-.753"
    clip-rule="evenodd"
  />
  <path
    fill-rule="evenodd"
    d="M23.738 13.853a1 1 0 0 1 1.409-.116l7.265 6.16 6.825-1.862a1 1 0 1 1 .526 1.93l-7.333 2a1 1 0 0 1-.91-.202l-7.666-6.5a1 1 0 0 1-.116-1.41"
    clip-rule="evenodd"
  />
  <path
    fill-rule="evenodd"
    d="M10.742 15.277a1 1 0 0 1 .965-.239l8.27 2.361a1 1 0 0 1 .695.714l2.297 8.972a1 1 0 0 1-.308.999L16.23 33.75a1 1 0 0 1-.936.212L7.023 31.6a1 1 0 0 1-.69-.7l-2.298-8.5a1 1 0 0 1 .275-.984zm.967 1.842L6.12 22.452l1.994 7.38 7.202 2.056 5.563-4.9-2.003-7.823z"
    clip-rule="evenodd"
  />
  <path
    fill-rule="evenodd"
    d="M17.707 20.293a1 1 0 0 1 0 1.414l-4 4a1 1 0 0 1-.974.256l-8-2.222a1 1 0 1 1 .535-1.927l7.438 2.066 3.587-3.587a1 1 0 0 1 1.414 0"
    clip-rule="evenodd"
  />
  <path
    fill-rule="evenodd"
    d="M12.758 24.03a1 1 0 0 1 1.212.727l2 8a1 1 0 0 1-1.94.486l-2-8a1 1 0 0 1 .728-1.213"
    clip-rule="evenodd"
  />
</svg>
